svgs/light/display-arrow-down.svg

<svg xmlns="http://www.w3.org/2000/svg" viewBox="0 0 576 512"><!-- Font Awesome Pro 6.0.0-alpha2 by @fontawesome - https://fontawesome.com License - https://fontawesome.com/license (Commercial License) --><path d="M208 176C203.906 176 199.812 177.562 196.688 180.688C190.438 186.938 190.438 197.063 196.688 203.312L276.688 283.312C282.938 289.562 293.063 289.562 299.312 283.312L379.312 203.312C385.562 197.062 385.562 186.937 379.312 180.688S362.937 174.438 356.688 180.688L304 233.375V16C304 7.156 296.844 0 288 0S272 7.156 272 16V233.375L219.312 180.688C216.188 177.562 212.094 176 208 176ZM512 0H368C359.164 0 352 7.162 352 16C352 24.836 359.164 32 368 32H512C529.674 32 544 46.326 544 64V352C544 369.672 529.674 384 512 384H64C46.326 384 32 369.672 32 352V64C32 46.326 46.326 32 64 32H208C216.836 32 224 24.836 224 16C224 7.162 216.836 0 208 0H64C28.654 0 0 28.652 0 64V352C0 387.346 28.654 416 64 416H213.693L194.494 480H144C135.164 480 128 487.164 128 496S135.164 512 144 512H432C440.836 512 448 504.836 448 496S440.836 480 432 480H381.506L362.307 416H512C547.346 416 576 387.346 576 352V64C576 28.652 547.346 0 512 0ZM227.906 480L247.105 416H328.895L348.094 480H227.906Z"/></svg>

<svg xmlns="http://www.w3.org/2000/svg" viewBox="0 0 576 512"><!--! Font Awesome Pro 6.3.0 by @fontawesome - https://fontawesome.com License - https://fontawesome.com/license (Commercial License) Copyright 2023 Fonticons, Inc. --><path d="M208 176c-4.094 0-8.188 1.562-11.31 4.688c-6.25 6.25-6.25 16.38 0 22.62l80 80c6.25 6.25 16.38 6.25 22.62 0l80-80c6.25-6.25 6.25-16.38 0-22.62s-16.38-6.25-22.62 0L304 233.4V16C304 7.156 296.8 0 288 0S272 7.156 272 16v217.4L219.3 180.7C216.2 177.6 212.1 176 208 176zM512 0h-144C359.2 0 352 7.162 352 16C352 24.84 359.2 32 368 32H512c17.67 0 32 14.33 32 32v288c0 17.67-14.33 32-32 32H64c-17.67 0-32-14.33-32-32V64c0-17.67 14.33-32 32-32h144C216.8 32 224 24.84 224 16C224 7.162 216.8 0 208 0H64C28.65 0 0 28.65 0 64v288c0 35.35 28.65 64 64 64h149.7l-19.2 64H144C135.2 480 128 487.2 128 496S135.2 512 144 512h288c8.836 0 16-7.164 16-16S440.8 480 432 480h-50.49l-19.2-64H512c35.35 0 64-28.65 64-64V64C576 28.65 547.3 0 512 0zM227.9 480l19.2-64h81.79l19.2 64H227.9z"/></svg>
